svg/human_male_board_poll.svg

<svg xmlns="http://www.w3.org/2000/svg" viewBox="0 0 24 24"><path d="M20 17c1.1 0 2-.9 2-2V4c0-1.1-.9-2-2-2H9.5c.3.6.5 1.3.5 2h10v11h-9v2m4-10v2H9v13H7v-6H5v6H3v-8H1.5V9c0-1.1.9-2 2-2zM8 4c0 1.1-.9 2-2 2s-2-.9-2-2 .9-2 2-2 2 .9 2 2m9 2h2v8h-2zm-3 4h2v4h-2zm-3 0h2v4h-2z"/></svg>

<svg xmlns="http://www.w3.org/2000/svg" id="mdi-human-male-board-poll" viewBox="0 0 24 24"><path d="M20 17C21.1 17 22 16.1 22 15V4C22 2.9 21.1 2 20 2H9.5C9.8 2.6 10 3.3 10 4H20V15H11V17M15 7V9H9V22H7V16H5V22H3V14H1.5V9C1.5 7.9 2.4 7 3.5 7H15M8 4C8 5.1 7.1 6 6 6S4 5.1 4 4 4.9 2 6 2 8 2.9 8 4M17 6H19V14H17V6M14 10H16V14H14V10M11 10H13V14H11V10Z" /></svg>
